X: 5075
T: Bride's Favourite, The
R: jig
M: 6/8
K: Gmajor
|:D|G^FG B^AB|GBd gdB|A^GA cBA|GBd gdB|
GDG B2 B|GB/c/d gdB|A2 A cBA|AGF G2:|
|:d|g2 a f2 a|gdB GB/c/d|gfe f2 d|e/f/gf e2 f|
gda gaf|gdB GG/A/B|A^GA cc/B/A|AGF G2:|
|:D|GB/c/d g2 g|edc B2 A|GBd gBg|f/g/af g2 a|
bg/a/b afa|ge/f/g f2 d|1 ed^c dd/e/f|gaf gdB:|2 ee/d/^c d2 f|gaf g2||

